X: 1
T: Johnny Cope
R: polka
M: 2/4
L: 1/8
K: Bmin
|:BB B/c/d/e/|fBB c/B/|AA A/B/c/d/|eaec|
dc/d/ ed/e/|fac B/A/|Bb f/e/d/c/|B2B2:|
d>d dA|d/e/f/g/ a/f/e/d/|cA eA|c/d/e/f/ ed/c/|
dc/d/ ed/e/|fac B/A/|Bb f/e/d/c/|B2B2:|


Tune 2327	Setting 25702

